!! 00045] TT[TB
!! Zh. Ch. 1-1578, 560806), Peking: 18354)
!!!OTL: Bu laodong de gu niang
!!!ARE: Asia, China,ÿZhejiang, Wenzhou
!! Ethnic Group: Han
!! MM,
!!!SCT: C1225
!!!YEM: Copyright 1995, estate of Helmut Schaffrath.
**kern
*ICvox
*Ivox
!! Mixed meters:  2/4; 3/4
*M3/4
*k[f#c#g#]
*A:
{8ff#
8bb
8aa
8bb
=1
8aa
8bb
8aa
8ff#
4bb
=2
*M2/4
8.aa
16ff#
4ff#}
=3
{8ff#
8bb
8aa
8bb
=4
8.aa
16ff#
4ff#
=5
8ee
16ee
16ee
4ff#}
=6
{8bb
16ff#
16aa
8ff#
8ff#
=7
8ff#
16ff#
16ff#
8ff#
8ff#
=8
8ff#
8ff#
4bb
=9
8.aa
16ff#
4ff#}
=10
{8ff#
16aa
16bb
8aa
8bb
=11
8aa
8ff#
8ee
8ee
=12
4ff#
8ee
8cc#}
==
!!!AGN: Xiaodiao
!! Noten kopiert.
!!    Vereinzelt Glissandi. Grundtonangabe fehlt.
!!!ONB: ESAC (Essen Associative Code) Database: CHINA
!!!AMT: irregular
!!!AIN: vox
!!!EED: Helmut Schaffrath
!!!EEV: 1.0
*-
